svg/Frame-1261156456.svg

<svg width="49" height="74" viewBox="0 0 49 74" fill="none" xmlns="http://www.w3.org/2000/svg"><rect width="49" height="74" fill="#DADADA"/><mask id="path-2-inside-1_2483_15959" fill="white"><path d="M647.199 91.2002L-792.801 91.2001L-792.801 -17.7999L647.199 -17.7998L647.199 91.2002Z"/></mask><path d="M647.199 91.2002L-792.801 91.2001L-792.801 -17.7999L647.199 -17.7998L647.199 91.2002Z" fill="white"/><path d="M1.58606 58.3562H12.0861V59.2082H1.58606V58.3562ZM6.09806 58.6082H7.01006V68.4482H6.09806V58.6082ZM6.84206 60.3602C7.42606 60.7522 8.20606 61.3322 9.18206 62.1002C10.1661 62.8682 10.9141 63.4842 11.4261 63.9482L10.8501 64.6442C10.2981 64.1322 9.55006 63.4962 8.60606 62.7362C7.66206 61.9682 6.92206 61.3962 6.38606 61.0202L6.84206 60.3602ZM13.278 60.4322H23.982V61.1762H13.278V60.4322ZM13.95 58.6082H19.158V59.3162H13.95V58.6082ZM16.17 57.3722H16.998V60.8762H16.17V57.3722ZM16.422 63.3482H17.238V68.4242H16.422V63.3482ZM13.314 66.2522C14.082 66.2522 15.122 66.2002 16.434 66.0962C17.57 66.0082 18.506 65.9082 19.242 65.7962L19.278 66.5882C18.494 66.6922 17.534 66.7882 16.398 66.8762C15.046 66.9722 14.038 67.0322 13.374 67.0562L13.314 66.2522ZM13.566 62.2202H19.326V62.9282H13.566V62.2202ZM18.306 67.5002C19.41 66.6842 20.286 65.8162 20.934 64.8962C21.622 63.9602 22.186 62.8522 22.626 61.5722L23.418 61.8482C23.138 62.5682 22.846 63.2242 22.542 63.8162C22.246 64.4082 21.934 64.9362 21.606 65.4002C21.294 65.8482 20.918 66.2922 20.478 66.7322C20.046 67.1722 19.534 67.6442 18.942 68.1482L18.306 67.5002ZM21.546 57.7442C21.858 57.9922 22.17 58.2682 22.482 58.5722C22.906 58.9402 23.202 59.2322 23.37 59.4482L22.794 60.0122C22.554 59.7322 22.266 59.4282 21.93 59.1002C21.562 58.7482 21.258 58.4682 21.018 58.2602L21.546 57.7442ZM14.07 64.3322C14.47 63.7322 14.814 63.1442 15.102 62.5682C15.35 62.1202 15.558 61.7082 15.726 61.3322L16.554 61.4882C16.426 61.7762 16.234 62.1762 15.978 62.6882C15.714 63.2082 15.406 63.7522 15.054 64.3202H19.182V65.0402H14.07V64.3322ZM20.394 57.3002C20.41 57.9562 20.45 58.8722 20.514 60.0482C20.586 61.5442 20.734 62.8602 20.958 63.9962C21.19 65.1242 21.474 66.0482 21.81 66.7682C21.922 66.9922 22.03 67.1522 22.134 67.2482C22.238 67.3522 22.346 67.4042 22.458 67.4042C22.554 67.4042 22.63 67.3602 22.686 67.2722C22.742 67.1842 22.802 67.0082 22.866 66.7442C22.946 66.3922 23.03 65.9762 23.118 65.4962L23.898 65.8082C23.754 66.4722 23.654 66.9042 23.598 67.1042C23.494 67.5122 23.354 67.8322 23.178 68.0642C23.002 68.2962 22.766 68.4122 22.47 68.4122C22.198 68.4122 21.954 68.3202 21.738 68.1362C21.53 67.9602 21.31 67.6602 21.078 67.2362C20.718 66.5402 20.414 65.5642 20.166 64.3082C19.91 62.9562 19.742 61.4842 19.662 59.8922C19.59 58.6922 19.554 57.8282 19.554 57.3002H20.394ZM24.6099 67.3682L27.9699 58.6682H29.2419L32.6019 67.3682H31.4979L28.6059 59.6642H28.5819L25.7019 67.3682H24.6099ZM26.3859 64.8602L26.7219 63.9602H30.3459L30.6819 64.8602H26.3859ZM33.333 67.3682V58.6682H36.609C37.161 58.6682 37.669 58.7682 38.133 58.9682C38.597 59.1602 38.965 59.4602 39.237 59.8682C39.517 60.2682 39.657 60.7642 39.657 61.3562C39.657 61.9802 39.513 62.5002 39.225 62.9162C38.945 63.3322 38.565 63.6402 38.085 63.8402C37.605 64.0322 37.061 64.1322 36.453 64.1402L34.341 64.1522V67.3682H33.333ZM36.309 63.2042C37.093 63.2042 37.669 63.0562 38.037 62.7602C38.413 62.4642 38.601 62.0082 38.601 61.3922C38.601 60.8002 38.417 60.3522 38.049 60.0482C37.681 59.7442 37.157 59.5922 36.477 59.5922H34.341V63.2042H36.309ZM40.7627 67.3682V58.6682H44.0387C44.5907 58.6682 45.0987 58.7682 45.5627 58.9682C46.0267 59.1602 46.3947 59.4602 46.6667 59.8682C46.9467 60.2682 47.0867 60.7642 47.0867 61.3562C47.0867 61.9802 46.9427 62.5002 46.6547 62.9162C46.3747 63.3322 45.9947 63.6402 45.5147 63.8402C45.0347 64.0322 44.4907 64.1322 43.8827 64.1402L41.7707 64.1522V67.3682H40.7627ZM43.7387 63.2042C44.5227 63.2042 45.0987 63.0562 45.4667 62.7602C45.8427 62.4642 46.0307 62.0082 46.0307 61.3922C46.0307 60.8002 45.8467 60.3522 45.4787 60.0482C45.1107 59.7442 44.5867 59.5922 43.9067 59.5922H41.7707V63.2042H43.7387Z" fill="black"/><rect x="0.0992187" y="0.100195" width="48.2" height="48.2" rx="10.1" fill="#F6F6F6"/><rect x="0.0992187" y="0.100195" width="48.2" height="48.2" rx="10.1" stroke="#D4D4D8" stroke-width="0.2"/><g filter="url(#filter0_iii_2483_15959)"><path d="M26.7494 20.776C26.5282 20.4733 26.1031 20.4357 25.8321 20.6809L24.5693 21.8268V18.2114C24.5693 17.8662 24.2908 17.5859 23.9478 17.5859C23.6047 17.5859 23.3263 17.8662 23.3263 18.2114V21.8394L22.0659 20.6834C21.7975 20.4357 21.3699 20.4733 21.1461 20.7735C20.9522 21.0362 21.0144 21.4115 21.253 21.6317L23.3909 23.5933C23.6992 23.876 24.1665 23.876 24.4773 23.5958L26.6376 21.6342C26.8787 21.414 26.9409 21.0412 26.7494 20.7785V20.776Z" fill="#D9D9D9"/></g><g filter="url(#filter1_iii_2483_15959)"><path d="M27.3845 26.527H20.8979C20.5424 26.527 20.2539 26.2658 20.2539 25.9439C20.2539 25.6221 20.5424 25.3608 20.8979 25.3608H27.3845C27.74 25.3608 28.0285 25.6221 28.0285 25.9439C28.0285 26.2658 27.74 26.527 27.3845 26.527Z" fill="#D9D9D9"/></g><g filter="url(#filter2_dii_2483_15959)"><path d="M30.6924 10.2002C31.7968 10.2003 32.6924 11.0957 32.6924 12.2002V35.2002C32.6923 36.3046 31.7968 37.2 30.6924 37.2002H17.1992C16.0947 37.2002 15.1993 36.3047 15.1992 35.2002V12.2002C15.1992 11.0956 16.0946 10.2002 17.1992 10.2002H30.6924ZM18.4805 12.4814C17.9283 12.4814 17.4807 12.9294 17.4805 13.4814V31.2568C17.4807 31.8089 17.9283 32.2568 18.4805 32.2568H29.4102C29.9622 32.2567 30.4099 31.8089 30.4102 31.2568V13.4814C30.4099 12.9294 29.9622 12.4815 29.4102 12.4814H18.4805Z" fill="#919191"/></g><defs><filter id="filter0_iii_2483_15959" x="20.5625" y="17.1172" width="6.76953" height="7.15723" filterUnits="userSpaceOnUse" color-interpolation-filters="sRGB"><feFlood flood-opacity="0" result="BackgroundImageFix"/><feBlend mode="normal" in="SourceGraphic" in2="BackgroundImageFix" result="shape"/><feColorMatrix in="SourceAlpha" type="matrix" values="0 0 0 0 0 0 0 0 0 0 0 0 0 0 0 0 0 0 127 0" result="hardAlpha"/><feOffset dx="0.46875" dy="0.46875"/><feGaussianBlur stdDeviation="0.703125"/><feComposite in2="hardAlpha" operator="arithmetic" k2="-1" k3="1"/><feColorMatrix type="matrix" values="0 0 0 0 0.121569 0 0 0 0 0.121569 0 0 0 0 0.117647 0 0 0 0.05 0"/><feBlend mode="normal" in2="shape" result="effect1_innerShadow_2483_15959"/><feColorMatrix in="SourceAlpha" type="matrix" values="0 0 0 0 0 0 0 0 0 0 0 0 0 0 0 0 0 0 127 0" result="hardAlpha"/><feOffset dx="-0.46875" dy="-0.46875"/><feGaussianBlur stdDeviation="0.703125"/><feComposite in2="hardAlpha" operator="arithmetic" k2="-1" k3="1"/><feColorMatrix type="matrix" values="0 0 0 0 0.121569 0 0 0 0 0.121569 0 0 0 0 0.117647 0 0 0 0.05 0"/><feBlend mode="normal" in2="effect1_innerShadow_2483_15959" result="effect2_innerShadow_2483_15959"/><feColorMatrix in="SourceAlpha" type="matrix" values="0 0 0 0 0 0 0 0 0 0 0 0 0 0 0 0 0 0 127 0" result="hardAlpha"/><feOffset dx="0.46875" dy="0.46875"/><feGaussianBlur stdDeviation="0.9375"/><feComposite in2="hardAlpha" operator="arithmetic" k2="-1" k3="1"/><feColorMatrix type="matrix" values="0 0 0 0 0.121569 0 0 0 0 0.121569 0 0 0 0 0.117647 0 0 0 0.05 0"/><feBlend mode="normal" in2="effect2_innerShadow_2483_15959" result="effect3_innerShadow_2483_15959"/></filter><filter id="filter1_iii_2483_15959" x="19.7852" y="24.8921" width="8.71094" height="2.10352" filterUnits="userSpaceOnUse" color-interpolation-filters="sRGB"><feFlood flood-opacity="0" result="BackgroundImageFix"/><feBlend mode="normal" in="SourceGraphic" in2="BackgroundImageFix" result="shape"/><feColorMatrix in="SourceAlpha" type="matrix" values="0 0 0 0 0 0 0 0 0 0 0 0 0 0 0 0 0 0 127 0" result="hardAlpha"/><feOffset dx="0.46875" dy="0.46875"/><feGaussianBlur stdDeviation="0.703125"/><feComposite in2="hardAlpha" operator="arithmetic" k2="-1" k3="1"/><feColorMatrix type="matrix" values="0 0 0 0 0.121569 0 0 0 0 0.121569 0 0 0 0 0.117647 0 0 0 0.05 0"/><feBlend mode="normal" in2="shape" result="effect1_innerShadow_2483_15959"/><feColorMatrix in="SourceAlpha" type="matrix" values="0 0 0 0 0 0 0 0 0 0 0 0 0 0 0 0 0 0 127 0" result="hardAlpha"/><feOffset dx="-0.46875" dy="-0.46875"/><feGaussianBlur stdDeviation="0.703125"/><feComposite in2="hardAlpha" operator="arithmetic" k2="-1" k3="1"/><feColorMatrix type="matrix" values="0 0 0 0 0.121569 0 0 0 0 0.121569 0 0 0 0 0.117647 0 0 0 0.05 0"/><feBlend mode="normal" in2="effect1_innerShadow_2483_15959" result="effect2_innerShadow_2483_15959"/><feColorMatrix in="SourceAlpha" type="matrix" values="0 0 0 0 0 0 0 0 0 0 0 0 0 0 0 0 0 0 127 0" result="hardAlpha"/><feOffset dx="0.46875" dy="0.46875"/><feGaussianBlur stdDeviation="0.9375"/><feComposite in2="hardAlpha" operator="arithmetic" k2="-1" k3="1"/><feColorMatrix type="matrix" values="0 0 0 0 0.121569 0 0 0 0 0.121569 0 0 0 0 0.117647 0 0 0 0.05 0"/><feBlend mode="normal" in2="effect2_innerShadow_2483_15959" result="effect3_innerShadow_2483_15959"/></filter><filter id="filter2_dii_2483_15959" x="14.7305" y="9.73145" width="19.8984" height="29.875" filterUnits="userSpaceOnUse" color-interpolation-filters="sRGB"><feFlood flood-opacity="0" result="BackgroundImageFix"/><feColorMatrix in="SourceAlpha" type="matrix" values="0 0 0 0 0 0 0 0 0 0 0 0 0 0 0 0 0 0 127 0" result="hardAlpha"/><feOffset dx="0.9375" dy="1.40625"/><feGaussianBlur stdDeviation="0.5"/><feComposite in2="hardAlpha" operator="out"/><feColorMatrix type="matrix" values="0 0 0 0 0.394602 0 0 0 0 0.394602 0 0 0 0 0.394602 0 0 0 0.08 0"/><feBlend mode="normal" in2="BackgroundImageFix" result="effect1_dropShadow_2483_15959"/><feBlend mode="normal" in="SourceGraphic" in2="effect1_dropShadow_2483_15959" result="shape"/><feColorMatrix in="SourceAlpha" type="matrix" values="0 0 0 0 0 0 0 0 0 0 0 0 0 0 0 0 0 0 127 0" result="hardAlpha"/><feOffset dx="0.5" dy="0.5"/><feGaussianBlur stdDeviation="0.5"/><feComposite in2="hardAlpha" operator="arithmetic" k2="-1" k3="1"/><feColorMatrix type="matrix" values="0 0 0 0 0.109684 0 0 0 0 0.0922738 0 0 0 0 0.0922738 0 0 0 0.1 0"/><feBlend mode="normal" in2="shape" result="effect2_innerShadow_2483_15959"/><feColorMatrix in="SourceAlpha" type="matrix" values="0 0 0 0 0 0 0 0 0 0 0 0 0 0 0 0 0 0 127 0" result="hardAlpha"/><feOffset dx="-0.46875" dy="-0.46875"/><feGaussianBlur stdDeviation="0.5"/><feComposite in2="hardAlpha" operator="arithmetic" k2="-1" k3="1"/><feColorMatrix type="matrix" values="0 0 0 0 0 0 0 0 0 0 0 0 0 0 0 0 0 0 0.05 0"/><feBlend mode="normal" in2="effect2_innerShadow_2483_15959" result="effect3_innerShadow_2483_15959"/></filter></defs></svg>

<svg fill="none" viewBox="0 0 49 74"><path fill="#DADADA" d="M0 0h49v74H0z"/><path fill="white" d="M647.199 91.2h-1440v-109h1440z"/><path fill="black" d="M1.586 58.356h10.5v.852h-10.5zm4.512.252h.912v9.84h-.912zm.744 1.752q.876.588 2.34 1.74 1.476 1.152 2.244 1.848l-.576.696a44 44 0 0 0-2.244-1.908q-1.416-1.152-2.22-1.716zm6.436.072h10.704v.744H13.278zm.672-1.824h5.208v.708H13.95zm2.22-1.236h.828v3.504h-.828zm.252 5.976h.816v5.076h-.816zm-3.108 2.904q1.152 0 3.12-.156a40 40 0 0 0 2.808-.3l.036.792q-1.176.156-2.88.288-2.028.144-3.024.18zm.252-4.032h5.76v.708h-5.76zm4.74 5.28q1.656-1.224 2.628-2.604 1.032-1.404 1.692-3.324l.792.276q-.42 1.08-.876 1.968-.444.888-.936 1.584a10 10 0 0 1-1.128 1.332q-.648.66-1.536 1.416zm3.24-9.756q.468.372.936.828.636.552.888.876l-.576.564q-.36-.42-.864-.912a26 26 0 0 0-.912-.84zm-7.476 6.588q.6-.9 1.032-1.764.372-.672.624-1.236l.828.156q-.192.432-.576 1.2-.396.78-.924 1.632h4.128v.72H14.07zm6.324-7.032q.024.984.12 2.748.108 2.244.444 3.948.348 1.692.852 2.772.168.336.324.48.156.156.324.156a.26.26 0 0 0 .228-.132q.084-.132.18-.528.12-.528.252-1.248l.78.312a29 29 0 0 1-.3 1.296q-.156.612-.42.96a.84.84 0 0 1-.708.348q-.408 0-.732-.276-.312-.264-.66-.9-.54-1.044-.912-2.928a33 33 0 0 1-.504-4.416q-.108-1.8-.108-2.592zm4.216 10.068 3.36-8.7h1.272l3.36 8.7h-1.104l-2.892-7.704h-.024l-2.88 7.704zm1.776-2.508.336-.9h3.624l.336.9zm6.947 2.508v-8.7h3.276q.828 0 1.524.3.696.288 1.104.9.42.6.42 1.488 0 .936-.432 1.56-.42.624-1.14.924-.72.288-1.632.3l-2.112.012v3.216zm2.976-4.164q1.176 0 1.728-.444.564-.444.564-1.368 0-.888-.552-1.344t-1.572-.456h-2.136v3.612zm4.454 4.164v-8.7h3.276q.828 0 1.524.3.696.288 1.104.9.42.6.42 1.488 0 .936-.432 1.56-.42.624-1.14.924-.72.288-1.632.3l-2.112.012v3.216zm2.976-4.164q1.176 0 1.728-.444.564-.444.564-1.368 0-.888-.552-1.344t-1.572-.456H41.77v3.612z"/><rect width="48.2" height="48.2" x=".099" y=".1" fill="#F6F6F6" rx="10.1"/><rect width="48.2" height="48.2" x=".099" y=".1" stroke="#D4D4D8" stroke-width=".2" rx="10.1"/><g filter="url(#a)"><path fill="#D9D9D9" d="M26.75 20.776a.618.618 0 0 0-.918-.095l-1.263 1.146V18.21a.624.624 0 0 0-.621-.625.624.624 0 0 0-.622.625v3.628l-1.26-1.156a.62.62 0 0 0-.92.09c-.194.263-.132.639.107.859l2.138 1.961a.804.804 0 0 0 1.086.003l2.16-1.962c.242-.22.304-.593.112-.855z"/></g><g filter="url(#b)"><path fill="#D9D9D9" d="M27.385 26.527h-6.487c-.356 0-.644-.261-.644-.583s.288-.583.644-.583h6.486c.356 0 .645.261.645.583s-.289.583-.645.583"/></g><g filter="url(#c)"><path fill="#919191" d="M30.692 10.2a2 2 0 0 1 2 2v23a2 2 0 0 1-2 2H17.2a2 2 0 0 1-2-2v-23a2 2 0 0 1 2-2zm-12.211 2.281a1 1 0 0 0-1 1v17.776a1 1 0 0 0 1 1h10.93a1 1 0 0 0 1-1V13.48a1 1 0 0 0-1-1z"/></g><defs><filter id="a" width="6.77" height="7.157" x="20.563" y="17.117" color-interpolation-filters="sRGB" filterUnits="userSpaceOnUse"><feFlood flood-opacity="0" result="BackgroundImageFix"/><feBlend in="SourceGraphic" in2="BackgroundImageFix" mode="normal" result="shape"/><feColorMatrix in="SourceAlpha" result="hardAlpha" type="matrix" values="0 0 0 0 0 0 0 0 0 0 0 0 0 0 0 0 0 0 127 0"/><feOffset dx=".469" dy=".469"/><feGaussianBlur stdDeviation=".703"/><feComposite in2="hardAlpha" k2="-1" k3="1" operator="arithmetic"/><feColorMatrix type="matrix" values="0 0 0 0 0.121569 0 0 0 0 0.121569 0 0 0 0 0.117647 0 0 0 0.05 0"/><feBlend in2="shape" mode="normal" result="effect1_innerShadow_2483_15959"/><feColorMatrix in="SourceAlpha" result="hardAlpha" type="matrix" values="0 0 0 0 0 0 0 0 0 0 0 0 0 0 0 0 0 0 127 0"/><feOffset dx="-.469" dy="-.469"/><feGaussianBlur stdDeviation=".703"/><feComposite in2="hardAlpha" k2="-1" k3="1" operator="arithmetic"/><feColorMatrix type="matrix" values="0 0 0 0 0.121569 0 0 0 0 0.121569 0 0 0 0 0.117647 0 0 0 0.05 0"/><feBlend in2="effect1_innerShadow_2483_15959" mode="normal" result="effect2_innerShadow_2483_15959"/><feColorMatrix in="SourceAlpha" result="hardAlpha" type="matrix" values="0 0 0 0 0 0 0 0 0 0 0 0 0 0 0 0 0 0 127 0"/><feOffset dx=".469" dy=".469"/><feGaussianBlur stdDeviation=".938"/><feComposite in2="hardAlpha" k2="-1" k3="1" operator="arithmetic"/><feColorMatrix type="matrix" values="0 0 0 0 0.121569 0 0 0 0 0.121569 0 0 0 0 0.117647 0 0 0 0.05 0"/><feBlend in2="effect2_innerShadow_2483_15959" mode="normal" result="effect3_innerShadow_2483_15959"/></filter><filter id="b" width="8.711" height="2.104" x="19.785" y="24.892" color-interpolation-filters="sRGB" filterUnits="userSpaceOnUse"><feFlood flood-opacity="0" result="BackgroundImageFix"/><feBlend in="SourceGraphic" in2="BackgroundImageFix" mode="normal" result="shape"/><feColorMatrix in="SourceAlpha" result="hardAlpha" type="matrix" values="0 0 0 0 0 0 0 0 0 0 0 0 0 0 0 0 0 0 127 0"/><feOffset dx=".469" dy=".469"/><feGaussianBlur stdDeviation=".703"/><feComposite in2="hardAlpha" k2="-1" k3="1" operator="arithmetic"/><feColorMatrix type="matrix" values="0 0 0 0 0.121569 0 0 0 0 0.121569 0 0 0 0 0.117647 0 0 0 0.05 0"/><feBlend in2="shape" mode="normal" result="effect1_innerShadow_2483_15959"/><feColorMatrix in="SourceAlpha" result="hardAlpha" type="matrix" values="0 0 0 0 0 0 0 0 0 0 0 0 0 0 0 0 0 0 127 0"/><feOffset dx="-.469" dy="-.469"/><feGaussianBlur stdDeviation=".703"/><feComposite in2="hardAlpha" k2="-1" k3="1" operator="arithmetic"/><feColorMatrix type="matrix" values="0 0 0 0 0.121569 0 0 0 0 0.121569 0 0 0 0 0.117647 0 0 0 0.05 0"/><feBlend in2="effect1_innerShadow_2483_15959" mode="normal" result="effect2_innerShadow_2483_15959"/><feColorMatrix in="SourceAlpha" result="hardAlpha" type="matrix" values="0 0 0 0 0 0 0 0 0 0 0 0 0 0 0 0 0 0 127 0"/><feOffset dx=".469" dy=".469"/><feGaussianBlur stdDeviation=".938"/><feComposite in2="hardAlpha" k2="-1" k3="1" operator="arithmetic"/><feColorMatrix type="matrix" values="0 0 0 0 0.121569 0 0 0 0 0.121569 0 0 0 0 0.117647 0 0 0 0.05 0"/><feBlend in2="effect2_innerShadow_2483_15959" mode="normal" result="effect3_innerShadow_2483_15959"/></filter><filter id="c" width="19.898" height="29.875" x="14.73" y="9.731" color-interpolation-filters="sRGB" filterUnits="userSpaceOnUse"><feFlood flood-opacity="0" result="BackgroundImageFix"/><feColorMatrix in="SourceAlpha" result="hardAlpha" type="matrix" values="0 0 0 0 0 0 0 0 0 0 0 0 0 0 0 0 0 0 127 0"/><feOffset dx=".938" dy="1.406"/><feGaussianBlur stdDeviation=".5"/><feComposite in2="hardAlpha" operator="out"/><feColorMatrix type="matrix" values="0 0 0 0 0.394602 0 0 0 0 0.394602 0 0 0 0 0.394602 0 0 0 0.08 0"/><feBlend in2="BackgroundImageFix" mode="normal" result="effect1_dropShadow_2483_15959"/><feBlend in="SourceGraphic" in2="effect1_dropShadow_2483_15959" mode="normal" result="shape"/><feColorMatrix in="SourceAlpha" result="hardAlpha" type="matrix" values="0 0 0 0 0 0 0 0 0 0 0 0 0 0 0 0 0 0 127 0"/><feOffset dx=".5" dy=".5"/><feGaussianBlur stdDeviation=".5"/><feComposite in2="hardAlpha" k2="-1" k3="1" operator="arithmetic"/><feColorMatrix type="matrix" values="0 0 0 0 0.109684 0 0 0 0 0.0922738 0 0 0 0 0.0922738 0 0 0 0.1 0"/><feBlend in2="shape" mode="normal" result="effect2_innerShadow_2483_15959"/><feColorMatrix in="SourceAlpha" result="hardAlpha" type="matrix" values="0 0 0 0 0 0 0 0 0 0 0 0 0 0 0 0 0 0 127 0"/><feOffset dx="-.469" dy="-.469"/><feGaussianBlur stdDeviation=".5"/><feComposite in2="hardAlpha" k2="-1" k3="1" operator="arithmetic"/><feColorMatrix type="matrix" values="0 0 0 0 0 0 0 0 0 0 0 0 0 0 0 0 0 0 0.05 0"/><feBlend in2="effect2_innerShadow_2483_15959" mode="normal" result="effect3_innerShadow_2483_15959"/></filter></defs></svg>
